X:2
T:Bröllopsmarsch 
T:(SvL Skåne nr. 112)
C:efter Johan Ankarloo
R:Marsch
Z:och arr: Åke Persson
O:Näsum, Skåne
B:Svenska Låtar Skåne nr 112
M:4/4
L:1/8
K:C
V:1
|: G2 | c2 G2 E2 G2 | cB cd e2 cd | e3 c ed dB | c4 z2 :|
|: cd | e2 e2 fedc | d^cde d2 GB | 
d2 d2 ed cB | c2 G2 E2 Gc | e3 c ed dB | c4 z2 :|
V:2
|: z2 | E2 D2 C2 D2 | ED EF G2 EF | G3 E GF FD | E4 z2 :|
|: z2 | c2 c2 dcBA | BABc B2 DG | 
B2 B2 cB AG | E2 D2 C2 D2 | G3 E GF FD | E4 z2 :|

